images/automated-receipts.svg

<svg height="64" viewBox="0 0 64 64" width="64" xmlns="http://www.w3.org/2000/svg"><path d="m19 2c-.210938 0-.421875.066406-.597656.199219l-3.402344 2.550781-3.402344-2.550781c-.300781-.230469-.707031-.261719-1.046875-.09375-.335937.171875-.550781.515625-.550781.894531v27h-1c-4.964844 0-9 4.039062-9 9v20c0 1.652344 1.347656 3 3 3h58c1.652344 0 3-1.347656 3-3v-20c0-4.960938-4.035156-9-9-9h-1v-25c0-.265625-.105469-.519531-.292969-.707031l-2-2c-.351562-.351563-.910156-.394531-1.304687-.09375l-3.402344 2.550781-3.402344-2.550781c-.351562-.265625-.84375-.265625-1.195312 0l-3.402344 2.550781-3.402344-2.550781c-.351562-.265625-.84375-.265625-1.195312 0l-3.402344 2.550781-3.402344-2.550781c-.351562-.265625-.84375-.265625-1.195312 0l-3.402344 2.550781-3.402344-2.550781c-.175781-.132813-.386718-.199219-.597656-.199219zm0 2.25 3.402344 2.550781c.351562.265625.84375.265625 1.195312 0l3.402344-2.550781 3.402344 2.550781c.351562.265625.84375.265625 1.195312 0l3.402344-2.550781 3.402344 2.550781c.351562.265625.84375.265625 1.195312 0l3.402344-2.550781 3.402344 2.550781c.351562.265625.84375.265625 1.195312 0l3.308594-2.480469 1.09375 1.09375v29.585938c-.554688 0-1 .449219-1 1v2c0 .550781.445312 1 1 1v3h-40v-3c.554688 0 1-.449219 1-1v-2c0-.550781-.445312-1-1-1v-30l2.402344 1.800781c.351562.265625.84375.265625 1.195312 0zm0 9.75c-.554688 0-1 .449219-1 1s.445312 1 1 1h16c.554688 0 1-.449219 1-1s-.445312-1-1-1zm22 0c-.554688 0-1 .449219-1 1s.445312 1 1 1h4c.554688 0 1-.449219 1-1s-.445312-1-1-1zm-22 4c-.554688 0-1 .449219-1 1s.445312 1 1 1h11c.554688 0 1-.449219 1-1s-.445312-1-1-1zm24 0c-.554688 0-1 .449219-1 1s.445312 1 1 1h2c.554688 0 1-.449219 1-1s-.445312-1-1-1zm-24 6c-.554688 0-1 .449219-1 1s.445312 1 1 1h10c.554688 0 1-.449219 1-1s-.445312-1-1-1zm22 0c-.554688 0-1 .449219-1 1s.445312 1 1 1h4c.554688 0 1-.449219 1-1s-.445312-1-1-1zm-22 4c-.554688 0-1 .449219-1 1s.445312 1 1 1h13c.554688 0 1-.449219 1-1s-.445312-1-1-1zm22 0c-.554688 0-1 .449219-1 1s.445312 1 1 1h4c.554688 0 1-.449219 1-1s-.445312-1-1-1zm-32 4h1v4c-2.207031 0-4 1.792969-4 4s1.792969 4 4 4h44c2.207031 0 4-1.792969 4-4s-1.792969-4-4-4v-4h1c3.859375 0 7 3.140625 7 7v20c0 .550781-.449219 1-1 1h-58c-.550781 0-1-.449219-1-1v-20c0-3.859375 3.140625-7 7-7zm8 3c-.554688 0-1 .449219-1 1v2c0 .550781.445312 1 1 1s1-.449219 1-1v-2c0-.550781-.445312-1-1-1zm5 0c-.554688 0-1 .449219-1 1v2c0 .550781.445312 1 1 1s1-.449219 1-1v-2c0-.550781-.445312-1-1-1zm5 0c-.554688 0-1 .449219-1 1v2c0 .550781.445312 1 1 1s1-.449219 1-1v-2c0-.550781-.445312-1-1-1zm5 0c-.554688 0-1 .449219-1 1v2c0 .550781.445312 1 1 1s1-.449219 1-1v-2c0-.550781-.445312-1-1-1zm5 0c-.554688 0-1 .449219-1 1v2c0 .550781.445312 1 1 1s1-.449219 1-1v-2c0-.550781-.445312-1-1-1zm5 0c-.554688 0-1 .449219-1 1v2c0 .550781.445312 1 1 1s1-.449219 1-1v-2c0-.550781-.445312-1-1-1zm5 0c-.554688 0-1 .449219-1 1v2c0 .550781.445312 1 1 1s1-.449219 1-1v-2c0-.550781-.445312-1-1-1zm-37 3v4c-1.101562 0-2-.898438-2-2s.898438-2 2-2zm44 0c1.101562 0 2 .898438 2 2s-.898438 2-2 2zm-46 9.949219c-1.101562 0-2 .898437-2 2v4c0 1.101562.898438 2 2 2h26c1.101562 0 2-.898438 2-2v-4c0-1.101563-.898438-2-2-2zm34 0c-1.101562 0-2 .898437-2 2v4c0 1.101562.898438 2 2 2h4c1.101562 0 2-.898438 2-2v-4c0-1.101563-.898438-2-2-2zm10 0c-1.101562 0-2 .898437-2 2v4c0 1.101562.898438 2 2 2h4c1.101562 0 2-.898438 2-2v-4c0-1.101563-.898438-2-2-2zm-44 2h26v4h-26zm34 0h4v4h-4zm10 0h4v4h-4zm0 0" fill="#003e6b"/></svg>

<?xml version="1.0" encoding="UTF-8"?>
<svg xmlns="http://www.w3.org/2000/svg" viewBox="0 0 64 64" width="64px" height="64px">
<g id="surface12900510">
<path style=" stroke:none;fill-rule:nonzero;fill:rgb(0%,24.313726%,41.960785%);fill-opacity:1;" d="M 19 2 C 18.789062 2 18.578125 2.066406 18.402344 2.199219 L 15 4.75 L 11.597656 2.199219 C 11.296875 1.96875 10.890625 1.9375 10.550781 2.105469 C 10.214844 2.277344 10 2.621094 10 3 L 10 30 L 9 30 C 4.035156 30 0 34.039062 0 39 L 0 59 C 0 60.652344 1.347656 62 3 62 L 61 62 C 62.652344 62 64 60.652344 64 59 L 64 39 C 64 34.039062 59.964844 30 55 30 L 54 30 L 54 5 C 54 4.734375 53.894531 4.480469 53.707031 4.292969 L 51.707031 2.292969 C 51.355469 1.941406 50.796875 1.898438 50.402344 2.199219 L 47 4.75 L 43.597656 2.199219 C 43.246094 1.933594 42.753906 1.933594 42.402344 2.199219 L 39 4.75 L 35.597656 2.199219 C 35.246094 1.933594 34.753906 1.933594 34.402344 2.199219 L 31 4.75 L 27.597656 2.199219 C 27.246094 1.933594 26.753906 1.933594 26.402344 2.199219 L 23 4.75 L 19.597656 2.199219 C 19.421875 2.066406 19.210938 2 19 2 Z M 19 4.25 L 22.402344 6.800781 C 22.753906 7.066406 23.246094 7.066406 23.597656 6.800781 L 27 4.25 L 30.402344 6.800781 C 30.753906 7.066406 31.246094 7.066406 31.597656 6.800781 L 35 4.25 L 38.402344 6.800781 C 38.753906 7.066406 39.246094 7.066406 39.597656 6.800781 L 43 4.25 L 46.402344 6.800781 C 46.753906 7.066406 47.246094 7.066406 47.597656 6.800781 L 50.90625 4.320312 L 52 5.414062 L 52 35 C 51.445312 35 51 35.449219 51 36 L 51 38 C 51 38.550781 51.445312 39 52 39 L 52 42 L 12 42 L 12 39 C 12.554688 39 13 38.550781 13 38 L 13 36 C 13 35.449219 12.554688 35 12 35 L 12 5 L 14.402344 6.800781 C 14.753906 7.066406 15.246094 7.066406 15.597656 6.800781 Z M 19 14 C 18.445312 14 18 14.449219 18 15 C 18 15.550781 18.445312 16 19 16 L 35 16 C 35.554688 16 36 15.550781 36 15 C 36 14.449219 35.554688 14 35 14 Z M 41 14 C 40.445312 14 40 14.449219 40 15 C 40 15.550781 40.445312 16 41 16 L 45 16 C 45.554688 16 46 15.550781 46 15 C 46 14.449219 45.554688 14 45 14 Z M 19 18 C 18.445312 18 18 18.449219 18 19 C 18 19.550781 18.445312 20 19 20 L 30 20 C 30.554688 20 31 19.550781 31 19 C 31 18.449219 30.554688 18 30 18 Z M 43 18 C 42.445312 18 42 18.449219 42 19 C 42 19.550781 42.445312 20 43 20 L 45 20 C 45.554688 20 46 19.550781 46 19 C 46 18.449219 45.554688 18 45 18 Z M 19 24 C 18.445312 24 18 24.449219 18 25 C 18 25.550781 18.445312 26 19 26 L 29 26 C 29.554688 26 30 25.550781 30 25 C 30 24.449219 29.554688 24 29 24 Z M 41 24 C 40.445312 24 40 24.449219 40 25 C 40 25.550781 40.445312 26 41 26 L 45 26 C 45.554688 26 46 25.550781 46 25 C 46 24.449219 45.554688 24 45 24 Z M 19 28 C 18.445312 28 18 28.449219 18 29 C 18 29.550781 18.445312 30 19 30 L 32 30 C 32.554688 30 33 29.550781 33 29 C 33 28.449219 32.554688 28 32 28 Z M 41 28 C 40.445312 28 40 28.449219 40 29 C 40 29.550781 40.445312 30 41 30 L 45 30 C 45.554688 30 46 29.550781 46 29 C 46 28.449219 45.554688 28 45 28 Z M 9 32 L 10 32 L 10 36 C 7.792969 36 6 37.792969 6 40 C 6 42.207031 7.792969 44 10 44 L 54 44 C 56.207031 44 58 42.207031 58 40 C 58 37.792969 56.207031 36 54 36 L 54 32 L 55 32 C 58.859375 32 62 35.140625 62 39 L 62 59 C 62 59.550781 61.550781 60 61 60 L 3 60 C 2.449219 60 2 59.550781 2 59 L 2 39 C 2 35.140625 5.140625 32 9 32 Z M 17 35 C 16.445312 35 16 35.449219 16 36 L 16 38 C 16 38.550781 16.445312 39 17 39 C 17.554688 39 18 38.550781 18 38 L 18 36 C 18 35.449219 17.554688 35 17 35 Z M 22 35 C 21.445312 35 21 35.449219 21 36 L 21 38 C 21 38.550781 21.445312 39 22 39 C 22.554688 39 23 38.550781 23 38 L 23 36 C 23 35.449219 22.554688 35 22 35 Z M 27 35 C 26.445312 35 26 35.449219 26 36 L 26 38 C 26 38.550781 26.445312 39 27 39 C 27.554688 39 28 38.550781 28 38 L 28 36 C 28 35.449219 27.554688 35 27 35 Z M 32 35 C 31.445312 35 31 35.449219 31 36 L 31 38 C 31 38.550781 31.445312 39 32 39 C 32.554688 39 33 38.550781 33 38 L 33 36 C 33 35.449219 32.554688 35 32 35 Z M 37 35 C 36.445312 35 36 35.449219 36 36 L 36 38 C 36 38.550781 36.445312 39 37 39 C 37.554688 39 38 38.550781 38 38 L 38 36 C 38 35.449219 37.554688 35 37 35 Z M 42 35 C 41.445312 35 41 35.449219 41 36 L 41 38 C 41 38.550781 41.445312 39 42 39 C 42.554688 39 43 38.550781 43 38 L 43 36 C 43 35.449219 42.554688 35 42 35 Z M 47 35 C 46.445312 35 46 35.449219 46 36 L 46 38 C 46 38.550781 46.445312 39 47 39 C 47.554688 39 48 38.550781 48 38 L 48 36 C 48 35.449219 47.554688 35 47 35 Z M 10 38 L 10 42 C 8.898438 42 8 41.101562 8 40 C 8 38.898438 8.898438 38 10 38 Z M 54 38 C 55.101562 38 56 38.898438 56 40 C 56 41.101562 55.101562 42 54 42 Z M 8 47.949219 C 6.898438 47.949219 6 48.847656 6 49.949219 L 6 53.949219 C 6 55.050781 6.898438 55.949219 8 55.949219 L 34 55.949219 C 35.101562 55.949219 36 55.050781 36 53.949219 L 36 49.949219 C 36 48.847656 35.101562 47.949219 34 47.949219 Z M 42 47.949219 C 40.898438 47.949219 40 48.847656 40 49.949219 L 40 53.949219 C 40 55.050781 40.898438 55.949219 42 55.949219 L 46 55.949219 C 47.101562 55.949219 48 55.050781 48 53.949219 L 48 49.949219 C 48 48.847656 47.101562 47.949219 46 47.949219 Z M 52 47.949219 C 50.898438 47.949219 50 48.847656 50 49.949219 L 50 53.949219 C 50 55.050781 50.898438 55.949219 52 55.949219 L 56 55.949219 C 57.101562 55.949219 58 55.050781 58 53.949219 L 58 49.949219 C 58 48.847656 57.101562 47.949219 56 47.949219 Z M 8 49.949219 L 34 49.949219 L 34 53.949219 L 8 53.949219 Z M 42 49.949219 L 46 49.949219 L 46 53.949219 L 42 53.949219 Z M 52 49.949219 L 56 49.949219 L 56 53.949219 L 52 53.949219 Z M 52 49.949219 "/>
</g>
</svg>
